X: 1023
T: South and North, or Both sides of the Tweed.   a Strathspey.
%R: strathspey, air
B: Niel Gow & Sons "Complete Repository" v.1 p.2 #3
Z: 2021 John Chambers <jc:trillian.mit.edu>
M: C
L: 1/8
Q: "SLOWISH"
K: G
% - - - - - - - - - -
V: 1 staves=2
g |\
G>GB>G G>GA<g | G<GB>G D>GB>G |\
c>AB>G A>GA<a | e<gd>B [G2D2B,2][GDB,] :|
|: g |\
e<gd>g Tc>BAa | e>gd>B Td>eTg>a |\
(b/a/).g/.f/ (g/e/)d/B/ Tc>BAa | !p!e>gd>B [G2D2B,2][GDB,] :|
% - - - - - - - - - -
V: 2 clef=bass middle=d
   z | G2g2  d2D2 | G2g2 B2G2 | F2G2 D2d2 | e2f2   g2G :|
|: z | c'2b2 a2d2 | c2B2 G2g2 | BcG2 d2D2 | !p!c'2e'2 g2G :|


